X: 02085
T: MONEY IN THE BANK
C: Bob McQuillen July'74
B: Bob's Note Book 1&2 #85
%R: jig
Z: 2019 John Chambers <jc:trillian.mit.edu>
M: 6/8
L: 1/8
K: D
A \
| ded cBc | dAA BAG | FAd fed | efe e2A |\
| ded cBc | dAA BAG | FAd cBc | edd d2 :|
|: d \
| efe dcd | eAA ede | fgf ede | fdd d2c |\
| Bcd dcB | ABA AFA | def gfe | fdd d2 :|
%%begintext align
%% for Reggie Whiting
%%endtext

%%sep 1 1 500

%%sep 1 1 500

